X: 11
T: Brian Boru's March
Z: JACKB
S: https://thesession.org/tunes/271#setting52941
R: jig
M: 6/8
L: 1/8
K: Amin
e|:cBA A2e|cBA A2d|BAG G2d|BAG G2e|
cBA A2e|cBA A3|Acd e2d|1 cBA A2e:|2 cBA A2E||
|:Acd e2d|e2d ecA|GBc d2B|d2B dBA|Acd e2d|
e2d ecA|Acd e2d|1 cBA A2E:|2 c3/2B/A A2 B||
|:cBA a2 a|cBA a2 a|BAG g2 g|BAG g2 g|
cBA a2 a|cBA a2 a|Acd e2 d|cBA A2B:|
|:cde g2 e|g2 e ged|GBc d2 B|d2 B dBG|
cde g2 e|g2 e gec|Acd e2 d|1 cBA A2 B:|2 cBA A2||

